!! 00000] TT[00
!! NN
!!!OTL: Xunfu de xiao qingma
!!!ARE: Neimeng Hulunbeir
!! Ethnic Group: Menggu
!! IV, 311
!!!SCT: C0418
!!!YEM: Copyright 1995, estate of Helmut Schaffrath.
**kern
*ICvox
*Ivox
!! Mixed meters:  3/4; 4/4
*M4/4
*k[]
*C:
{2e
4g
=1
4a
8dd
8dd
8ee
24ee
24ee
24aa
=2
2.ee}
=3
{8ee
16ee
16ee
[2gg
8gg]
24gg
24gg
24ccc
=4
4ee
2dd
8dd
8cc}
=5
{8cc
8a
8a
[4.gg
8gg]
16aa
16ccc
=6
8ee
8dd
4cc
2a}
=7
{4.a
8dd
12cc
12dd
12ee
=8
[2dd
8dd]
24dd
24dd
24gg
4cc}
{8.B
16d
4e
8a
24g
24a
24g
=9
*M3/4
2.e
=10
*M4/4
8.e
16g
8a
24cc
24cc
24dd
2dd}
=11
{8cc
8a
8a
[4.gg
8gg]
24gg
24gg
24ccc
=12
8ee
8dd
8cc
24cc
24cc
24ee
2a}
==
!!!AGN: Muge. Biaoda aiqing
!! sehr typisch. Grosser Tonumfang.
!!    Einige Verzierungen.
!!!ONB: ESAC (Essen Associative Code) Database: CHINA
!!!AMT: irregular
!!!AIN: vox
!!!EED: Helmut Schaffrath
!!!EEV: 1.0
*-
